X:1
T:Revival, SMD
T:Revival, SMD
T:William Howard Doane, 1880
T:Public Domain Courtesy of the Cyber Hymnal™
C:William Howard Doane, 1880
Z:Public Domain
Z:Courtesy of the Cyber Hymnal™
%%score ( 1 2 ) ( 3 4 )
L:1/8
Q:1/4=108
M:4/4
K:G
V:1 treble 
V:2 treble 
V:3 bass 
V:4 bass 
V:1
 ([DG][FA]) | [GB]2 (AG) [CE]2 [CD]2 | G6 [DG]2 | [DA]2 [^CA]2 [DA]2 [DB]2 | A6 (G[FA]) | %5
 [GB]2 (AG) [CE]2 (EF) | [CG]2 (FE) D2 [DG]2 | [DA]3 [DG]"^rall." [GB]2 [FA]2 | G6 ([GB][Fc]) | %9
 [Gd]3 [Ge] [Gd]2 [GB]2 | G6 ([GB][Fc]) | [Gd]3 [Ge] [Gd]2 [GB]2 | A6 G[FA] | %13
 [GB]2 (AG) [CE]2 (EF) | [B,G]2 (FE) D2 [DG]2 | [DA]3"^rall." [DG] [GB]2 [FA]2 | !fermata!G6 |] %17
V:2
 x2 | x2 E2 x4 | (B,2 E2 D2) x2 | x8 | (D2 ^C2 D2) G x | x2 D2 x C2 x | x2 ^C2 D2 x2 | x8 | G6 x2 | %9
 x8 | (D2 E2 D2) x2 | x8 | (F2 G2 F2) G x | x2 D2 x C2 x | x2 ^C2 D2 x2 | x8 | G6 |] %17
V:3
 ([G,B,][D,D]) | [G,D]2 [B,,G,]2 [C,G,]2 [A,,F,]2 | (G,2 C2 B,2) [B,,G,]2 | %3
 [A,,F,]2 [A,,E,]2 [A,,F,]2 [G,,G,]2 | (F,2 E,2 F,2) [B,,D] x | [G,D]2 [B,,G,]2 [C,G,]2 [A,,A,]2 | %6
 [E,G,]2 (A,G,) [D,F,]2 [B,,G,]2 | [A,,F,]3 [B,,G,] [D,D]2 [D,C]2 | [G,,G,B,]6 D2 | %9
 [B,D]3 C [B,D]2 [G,D]2 | (B,2 C2 B,2) D2 | [B,D]3 C [B,D]2 [^CE]2 | D2 ([A,^C]2 [D,D]2) [B,,D] x | %13
 [G,D]2 [B,,G,]2 [C,G,]2 [A,,A,]2 | [E,G,]2 (A,G,) [D,F,]2 [B,,G,]2 | %15
 [A,,F,]3 [B,,G,] [D,D]2 [D,C]2 | ([G,B,]2 [E,C]2 [D,B,]2) |] %17
V:4
 x2 | x8 | G,,6 x2 | x8 | D,6 D, x | x8 | x2 A,,2 x4 | x8 | x6 (G,A,) | x3 C x4 | G,6 (G,A,) | %11
 x3 ^C x4 | D2 D, x5 | x8 | x2 A,,2 x4 | x8 | G,,6 |] %17

